!!!!SEGMENT: pl-cz--iii-591--002_rygall-ignacy--dum-natus-esset-cum-sis-ipse.krn
!!!cenid: 17xx:1115
!!!COM: Rygall, Ignacy
!!!COM-rismid: pe30110281
!!!CDT: <1750->1799
!!!CNT:
!!!OPR: Dum natus esset
!!!OTL: Cum sis ipse
!!!OMV: 002
!!!PDT: 1775
!!!AGN:
!!!SMS-siglum: PL-CZ
!!!SMS-shelfmark: III-591
!!!SMS-shelfwork: 001-002 M
!!!SMS-variant:
!!!SMS-altvar:
!!!NIFC-rismid: 300001123
!!!URL-scan: http://repozytorium.nifc.pl/skany/pl-cz-nut--iii-591
!!!ONB-nifc: UWAGA: części Dum natus esset: Recitativo – Allegro moderato, Cum sis ipse (Andantino), Aria – Cape panis angelorum, Coro – Ergo sine fine
!!!key: G
**kern	**dynam	**kern	**kern	**kern	**kern	**kern	**kern	**text	**kern	**kern
*group3	*	*group3	*group3	*group2	*group2	*group2	*	*	*group1	*group1
*part9	*part9	*part8	*part7	*part6	*part5	*part4	*part3	*part3	*part2	*part1
*staff9	*	*staff8	*staff7	*staff6	*staff5	*staff4	*staff3	*staff3	*staff2	*staff1
*I"Baſso	*	*I"Violino Secondo	*I"Violino Primo ?	*I"Coro [Basso]	*I"Canto 2do	*I"Coro Canto 1mo	*I"Baſso Solo	*	*I"Cornu 2do in D:	*I"Cornu 1.mo in D
*I'cb	*	*I'vl 2	*I'vl 1	*I'Coro B	*I'Coro S 2	*I'Coro S 1	*I'B	*	*I'cor 2 in D	*I'cor 1 in D
*Icbass	*	*Ivioln	*Ivioln	*Ibass	*Isoprn	*Isoprn	*Ibass	*	*Icor	*Icor
*ICstr	*	*ICstr	*ICstr	*ICvox	*ICvox	*ICvox	*ICvox	*	*ICbras	*ICbras
*clefF4	*	*clefG2	*clefG2	*	*	*	*clefF4	*	*	*
*ITrd0c0	*	*	*	*	*	*	*	*	*	*
*k[f#]	*	*k[f#c#]	*k[f#c#]	*	*	*	*k[f#]	*	*	*
*G:	*	*G:	*G:	*	*	*	*G:	*	*	*
*M3/4	*	*M3/4	*M3/4	*	*	*	*M3/4	*	*	*
=1	=1	=1	=1	=1	=1	=1	=1	=1	=1	=1
!	!	!	!LO:TX:t=P:problem:poniżej partii vl 1 pięciolinia z pomocniczo zapisaną partią B	!	!	!	!	!	!	!
!LO:TX:t=P:problem:poniżej partii cb pięciolinia z pomocniczo zapisaną partią B	!	!LO:TX:t=P:problem:poniżej partii vl 2 pięciolinia z pomocniczo zapisaną partią B	!LO:TX:t=P:problem:błędnie wpisane znaki przykluczowe [f# c#]	!	!	!	!LO:TX:t=P:problem:poniżej partii B pięciolinia z pomocniczo zapisaną partią cb	!	!	!
!LO:TX:a:B:t=andantino	!	!LO:TX:t=P:problem:błędnie wpisane znaki przykluczowe [f# c#]	!LO:TX:a:B:t=Andantino	!LO:TX:t=P:problem:partia tylko w części "Ergo sine fine"	!LO:TX:t=P:problem:partia tylko w części "Ergo sine fine"	!LO:TX:t=P:problem:partia tylko w części "Ergo sine fine"	!LO:TX:a:B:t=andantino	!	!LO:TX:a:t=reliqua\nTace	!LO:TX:a:t=reliqua Tace
4G\	.	4B/	4g/	2.ryy	2.ryy	2.ryy	0.r	.	2.ryy	2.ryy
4F#\	.	4d/	4a/	.	.	.	.	.	.	.
4G\	.	4d/	4b/	.	.	.	.	.	.	.
=2	=2	=2	=2	=2	=2	=2	=2	=2	=2	=2
.	.	.	8qqdd/	.	.	.	.	.	.	.
*	*	*	*2\right	*	*	*	*	*	*	*
!	!	!	!LO:SIC:v:s=2cc\	!	!	!	!	!	!	!
4A\	.	2d/	2cc#\	2.ryy	2.ryy	2.ryy	.	.	2.ryy	2.ryy
4D\	.	.	.	.	.	.	.	.	.	.
4G\	.	4d/	4b\	.	.	.	.	.	.	.
=3	=3	=3	=3	=3	=3	=3	=3	=3	=3	=3
*2\right	*	*	*	*	*	*	*	*	*	*
2C\	.	2e/	(8b\L	2.ryy	2.ryy	2.ryy	.	.	2.ryy	2.ryy
.	.	.	8a\)	.	.	.	.	.	.	.
!	!	!	!LO:SIC:v:s=(8cc\	!	!	!	!	!	!	!
.	.	.	(8cc#\	.	.	.	.	.	.	.
.	.	.	8b\)	.	.	.	.	.	.	.
4C#X\	.	4e/	(8a\	.	.	.	.	.	.	.
.	.	.	8g\J)	.	.	.	.	.	.	.
=4	=4	=4	=4	=4	=4	=4	=4	=4	=4	=4
4D\	.	2d/	(8g/L	2.ryy	2.ryy	2.ryy	.	.	2.ryy	2.ryy
.	.	.	8f#/)	.	.	.	.	.	.	.
4AA\	.	.	(8a/	.	.	.	.	.	.	.
.	.	.	8f#/)	.	.	.	.	.	.	.
4DD/	.	4d/	(8e/	.	.	.	.	.	.	.
.	.	.	8d/J)	.	.	.	.	.	.	.
!	!	!LO:LB:g=original	!	!	!	!	!	!	!	!
=5	=5	=5	=5	=5	=5	=5	=5	=5	=5	=5
4B\	.	4d/	4g/	2.ryy	2.ryy	2.ryy	0.r	.	2.ryy	2.ryy
4F#\	.	4d/	4a/	.	.	.	.	.	.	.
4G\	.	4d/	4b/	.	.	.	.	.	.	.
=6	=6	=6	=6	=6	=6	=6	=6	=6	=6	=6
.	.	.	8qqdd/	.	.	.	.	.	.	.
!	!	!	!LO:SIC:v:s=2cc\	!	!	!	!	!	!	!
4A\	.	2d/	2cc#\	2.ryy	2.ryy	2.ryy	.	.	2.ryy	2.ryy
4F#\	.	.	.	.	.	.	.	.	.	.
4G\	.	4d/	4b\	.	.	.	.	.	.	.
!	!	!	!LO:LB:g=original	!	!	!	!	!	!	!
=7	=7	=7	=7	=7	=7	=7	=7	=7	=7	=7
!	!	!	!LO:SIC:v:s=8cc\L	!	!	!	!	!	!	!
4C\	.	8e/L	8cc#\L	2.ryy	2.ryy	2.ryy	.	.	2.ryy	2.ryy
!	!	!LO:SIC:v:s=8c/J	!	!	!	!	!	!	!	!
.	.	8c#/J	8a\J	.	.	.	.	.	.	.
4D\	.	4B/	4g\	.	.	.	.	.	.	.
4DD/	.	4A/	4f#\	.	.	.	.	.	.	.
=8	=8	=8	=8	=8	=8	=8	=8	=8	=8	=8
.	.	.	8qqf#/	.	.	.	.	.	.	.
4G\	.	2B/	2g\	2.ryy	2.ryy	2.ryy	.	.	2.ryy	2.ryy
4D\	.	.	.	.	.	.	.	.	.	.
4GG/	.	4r	4r	.	.	.	.	.	.	.
=9	=9	=9	=9	=9	=9	=9	=9	=9	=9	=9
!	!LO:DY:t=p&colon;:rj	!	!	!	!	!	!	!	!	!
4G\	p	2d/	4g/	2.ryy	2.ryy	2.ryy	(4G\	Cum	2.ryy	2.ryy
4F#\	.	.	4a/	.	.	.	4A\)	.	.	.
4G\	.	4d/	4b/	.	.	.	4B\	sis	.	.
=10	=10	=10	=10	=10	=10	=10	=10	=10	=10	=10
.	.	.	8qqdd/	.	.	.	.	.	.	.
!	!	!	!LO:SIC:v:s=2ccn\	!	!	!	!	!	!	!
4A\	.	4d/	2cc#\	2.ryy	2.ryy	2.ryy	4d\	ip-	2.ryy	2.ryy
4D\	.	4d/	.	.	.	.	4c\	.	.	.
4G\	.	4d/	4b\	.	.	.	4B\	-se	.	.
!LO:LB:g=original	!	!	!	!	!	!	!	!	!	!
=11	=11	=11	=11	=11	=11	=11	=11	=11	=11	=11
2C\	.	2e/	(8bb\L	2.ryy	2.ryy	2.ryy	(8B\L	Ag-	2.ryy	2.ryy
.	.	.	8aa\)	.	.	.	8A\)	.	.	.
!	!	!	!LO:SIC:v:s=(8ccc\	!	!	!	!	!	!	!
.	.	.	(8ccc#\	.	.	.	(8c\	.	.	.
.	.	.	8bb\)	.	.	.	8B\J)	.	.	.
4C#X\	.	4e/	(8aa\	.	.	.	(8A\L	-nus	.	.
.	.	.	8gg\J)	.	.	.	8G\J)	.	.	.
=12	=12	=12	=12	=12	=12	=12	=12	=12	=12	=12
4D\	.	2d/	(8gg\L	2.ryy	2.ryy	2.ryy	(8G\L	De-	2.ryy	2.ryy
.	.	.	8ff#\)	.	.	.	8F#\)	.	.	.
4AA\	.	.	(8aa\	.	.	.	(8A\	.	.	.
.	.	.	8ff#\)	.	.	.	8F#\)	.	.	.
4DD/	.	4d/	(8ee\	.	.	.	(8E\	-i	.	.
.	.	.	8dd\J)	.	.	.	8D\J)	.	.	.
=13	=13	=13	=13	=13	=13	=13	=13	=13	=13	=13
4B\	.	4d/	4gg\	2.ryy	2.ryy	2.ryy	4G\	in	2.ryy	2.ryy
4F#\	.	4d/	4aa\	.	.	.	4A\	.	.	.
4G\	.	4d/	4bb\	.	.	.	4B\	quo	.	.
!	!	!	!	!	!	!	!LO:LB:g=original	!	!	!
=14	=14	=14	=14	=14	=14	=14	=14	=14	=14	=14
.	.	.	8qqddd/	.	.	.	.	.	.	.
!	!	!	!LO:SIC:v:s=2ccc\	!	!	!	!	!	!	!
4A\	.	2d/	2ccc#\	2.ryy	2.ryy	2.ryy	4d\	ni-	2.ryy	2.ryy
4D\	.	.	.	.	.	.	4c\	-hil	.	.
4G\	.	4d/	4bb\	.	.	.	4B\	quid-	.	.
=15	=15	=15	=15	=15	=15	=15	=15	=15	=15	=15
!	!	!	!LO:SIC:v:s=8ccc\L	!	!	!	!	!	!	!
4C\	.	8e/L	8ccc#\L	2.ryy	2.ryy	2.ryy	8c\L	-quam	2.ryy	2.ryy
!	!	!LO:SIC:v:s=8c/J	!	!	!	!	!	!	!	!
.	.	8c#/J	8aa\J	.	.	.	8A\J	.	.	.
4D\	.	4B/	4gg\	.	.	.	4G\	re-	.	.
4DD/	.	4A/	4ff#\	.	.	.	4F#\	.	.	.
!	!	!LO:LB:g=original	!	!	!	!	!	!	!	!
=16	=16	=16	=16	=16	=16	=16	=16	=16	=16	=16
*	*	*	*	*	*	*	*2\right	*	*	*
4G\	.	2B/	2gg\	2.ryy	2.ryy	2.ryy	2G\	-i	2.ryy	2.ryy
4D\	.	.	.	.	.	.	.	.	.	.
4GG/	.	4B/	4r	.	.	.	4r	.	.	.
!	!	!	!LO:LB:g=original	!	!	!	!	!	!	!
=17	=17	=17	=17	=17	=17	=17	=17	=17	=17	=17
*	*	*tremolo	*	*	*	*	*	*	*	*
4B\	.	16d/LL	4ddd\	2.ryy	2.ryy	2.ryy	4d\	in	2.ryy	2.ryy
.	.	16d/	.	.	.	.	.	.	.	.
.	.	16d/	.	.	.	.	.	.	.	.
.	.	16d/	.	.	.	.	.	.	.	.
!	!	!	!LO:SIC:v:s=4ccc\	!	!	!	!	!	!	!
4A\	.	16d/	4ccc#\	.	.	.	4c\	.	.	.
.	.	16d/	.	.	.	.	.	.	.	.
.	.	16d/	.	.	.	.	.	.	.	.
.	.	16d/	.	.	.	.	.	.	.	.
4G\	.	16d/	4bb\	.	.	.	4B\	quo'	.	.
.	.	16d/	.	.	.	.	.	.	.	.
.	.	16d/	.	.	.	.	.	.	.	.
.	.	16d/JJ	.	.	.	.	.	.	.	.
=18	=18	=18	=18	=18	=18	=18	=18	=18	=18	=18
4F#\	.	16d/LL	4aa\	2.ryy	2.ryy	2.ryy	4A\	ni-	2.ryy	2.ryy
.	.	16d/	.	.	.	.	.	.	.	.
.	.	16d/	.	.	.	.	.	.	.	.
.	.	16d/	.	.	.	.	.	.	.	.
4E\	.	16d/	4gg\	.	.	.	4G\	.	.	.
.	.	16d/	.	.	.	.	.	.	.	.
.	.	16d/	.	.	.	.	.	.	.	.
.	.	16d/	.	.	.	.	.	.	.	.
4D\	.	16d/	4ff#\	.	.	.	4F#\	-hil	.	.
.	.	16d/	.	.	.	.	.	.	.	.
.	.	16d/	.	.	.	.	.	.	.	.
.	.	16d/JJ	.	.	.	.	.	.	.	.
=19	=19	=19	=19	=19	=19	=19	=19	=19	=19	=19
4B\	.	16d/LL	4ddd\	2.ryy	2.ryy	2.ryy	4d\	quid-	2.ryy	2.ryy
.	.	16d/	.	.	.	.	.	.	.	.
.	.	16d/	.	.	.	.	.	.	.	.
.	.	16d/	.	.	.	.	.	.	.	.
!	!	!	!LO:SIC:v:s=4ccc\	!	!	!	!	!	!	!
4A\	.	16d/	4ccc#\	.	.	.	4c\	.	.	.
.	.	16d/	.	.	.	.	.	.	.	.
.	.	16d/	.	.	.	.	.	.	.	.
.	.	16d/	.	.	.	.	.	.	.	.
4G\	.	16d/	4bb\	.	.	.	4B\	-quam	.	.
.	.	16d/	.	.	.	.	.	.	.	.
.	.	16d/	.	.	.	.	.	.	.	.
.	.	16d/JJ	.	.	.	.	.	.	.	.
=20	=20	=20	=20	=20	=20	=20	=20	=20	=20	=20
4F#\	.	16d/LL	2aa\	2.ryy	2.ryy	2.ryy	4A\	re-	2.ryy	2.ryy
.	.	16d/	.	.	.	.	.	.	.	.
.	.	16d/	.	.	.	.	.	.	.	.
.	.	16d/	.	.	.	.	.	.	.	.
4E\	.	16d/	.	.	.	.	4D\	-i	.	.
.	.	16d/	.	.	.	.	.	.	.	.
.	.	16d/	.	.	.	.	.	.	.	.
.	.	16d/	.	.	.	.	.	.	.	.
4D\	.	16d/	4dd\	.	.	.	4r	.	.	.
.	.	16d/	.	.	.	.	.	.	.	.
.	.	16d/	.	.	.	.	.	.	.	.
.	.	16d/JJ	.	.	.	.	.	.	.	.
=21	=21	=21	=21	=21	=21	=21	=21	=21	=21	=21
4B-X\	.	16d/LL	4ddd\	2.ryy	2.ryy	2.ryy	4d\	Je-	2.ryy	2.ryy
.	.	16d/	.	.	.	.	.	.	.	.
.	.	16d/	.	.	.	.	.	.	.	.
.	.	16d/	.	.	.	.	.	.	.	.
!	!	!	!LO:SIC:v:s=4ccc\	!	!	!	!	!	!	!
4A\	.	16d/	4ccc#\	.	.	.	4c\	-su-	.	.
.	.	16d/	.	.	.	.	.	.	.	.
.	.	16d/	.	.	.	.	.	.	.	.
.	.	16d/	.	.	.	.	.	.	.	.
4G\	.	16d/	4bb-X\	.	.	.	4B-X\	-le	.	.
.	.	16d/	.	.	.	.	.	.	.	.
.	.	16d/	.	.	.	.	.	.	.	.
.	.	16d/JJ	.	.	.	.	.	.	.	.
=22	=22	=22	=22	=22	=22	=22	=22	=22	=22	=22
4F#\	.	16d/LL	4aa\	2.ryy	2.ryy	2.ryy	4A\	mi	2.ryy	2.ryy
.	.	16d/	.	.	.	.	.	.	.	.
.	.	16d/	.	.	.	.	.	.	.	.
.	.	16d/	.	.	.	.	.	.	.	.
4E\	.	16d/	4gg\	.	.	.	4G\	.	.	.
.	.	16d/	.	.	.	.	.	.	.	.
.	.	16d/	.	.	.	.	.	.	.	.
.	.	16d/	.	.	.	.	.	.	.	.
4D\	.	16d/	4ff#\	.	.	.	4F#\	.	.	.
.	.	16d/	.	.	.	.	.	.	.	.
.	.	16d/	.	.	.	.	.	.	.	.
.	.	16d/JJ	.	.	.	.	.	.	.	.
!LO:LB:g=original	!	!	!	!	!	!	!	!	!	!
=23	=23	=23	=23	=23	=23	=23	=23	=23	=23	=23
4B-\	.	16d/LL	4ddd\	2.ryy	2.ryy	2.ryy	4d\	Sa-	2.ryy	2.ryy
.	.	16d/	.	.	.	.	.	.	.	.
.	.	16d/	.	.	.	.	.	.	.	.
.	.	16d/	.	.	.	.	.	.	.	.
!	!	!	!LO:SIC:v:s=4ccc\	!	!	!	!	!	!	!
4A\	.	16d/	4ccc#\	.	.	.	4c\	-ncti-	.	.
.	.	16d/	.	.	.	.	.	.	.	.
.	.	16d/	.	.	.	.	.	.	.	.
.	.	16d/	.	.	.	.	.	.	.	.
4G\	.	16d/	4bb-X\	.	.	.	4B-X\	.	.	.
.	.	16d/	.	.	.	.	.	.	.	.
.	.	16d/	.	.	.	.	.	.	.	.
.	.	16d/JJ	.	.	.	.	.	.	.	.
=24	=24	=24	=24	=24	=24	=24	=24	=24	=24	=24
2F#\	.	16d/LL	2aa\	2.ryy	2.ryy	2.ryy	4A\	-ſsi-	2.ryy	2.ryy
.	.	16d/	.	.	.	.	.	.	.	.
.	.	16d/	.	.	.	.	.	.	.	.
.	.	16d/	.	.	.	.	.	.	.	.
.	.	16d/	.	.	.	.	4D\	-me	.	.
.	.	16d/	.	.	.	.	.	.	.	.
.	.	16d/	.	.	.	.	.	.	.	.
.	.	16d/	.	.	.	.	.	.	.	.
4D\	.	16d/	4dd\	.	.	.	4r	.	.	.
.	.	16d/	.	.	.	.	.	.	.	.
.	.	16d/	.	.	.	.	.	.	.	.
.	.	16d/JJ	.	.	.	.	.	.	.	.
*	*	*Xtremolo	*	*	*	*	*	*	*	*
=25	=25	=25	=25	=25	=25	=25	=25	=25	=25	=25
4B\	.	4d/	4gg\	2.ryy	2.ryy	2.ryy	4G\	par-	2.ryy	2.ryy
4F#\	.	4d/	4aa\	.	.	.	4A\	-vu-	.	.
4G\	.	4d/	4bb\	.	.	.	4B\	-le	.	.
=26	=26	=26	=26	=26	=26	=26	=26	=26	=26	=26
*	*	*	*	*	*	*	*	*ij	*	*
4A\	.	2d/	4ddd\	2.ryy	2.ryy	2.ryy	4d\	par-	2.ryy	2.ryy
!	!	!	!LO:SIC:v:s=4ccc\	!	!	!	!	!	!	!
4F#\	.	.	4ccc#\	.	.	.	4c\	-vu-	.	.
4G\	.	4d/	4bb\	.	.	.	4B\	-le	.	.
*	*	*	*	*	*	*	*	*Xij	*	*
=27	=27	=27	=27	=27	=27	=27	=27	=27	=27	=27
!	!	!	!LO:SIC:v:s=8ccc\L	!	!	!	!	!	!	!
4C\	.	8e/L	8ccc#\L	2.ryy	2.ryy	2.ryy	8c\L	te-	2.ryy	2.ryy
!	!	!LO:SIC:v:s=8c/J	!	!	!	!	!	!	!	!
.	.	8c#/J	8aa\J	.	.	.	8A\J	.	.	.
4D\	.	4B/	4gg\	.	.	.	4G\	-ne-	.	.
!LO:TX:a:B:t=temp di prima	!	!	!	!	!	!	!	!	!	!
4DD/	.	4A/	4ff#\	.	.	.	4F#\	-re	.	.
!	!	!LO:LB:g=original	!LO:LB:g=original	!	!	!	!LO:LB:g=original	!	!	!
=28	=28	=28	=28	=28	=28	=28	=28	=28	=28	=28
*M4/4	*	*M4/4	*M4/4	*	*	*	*M4/4	*	*	*
*met(c)	*	*met(c)	*met(c)	*	*	*	*met(c)	*	*	*
*	*	*^	*	*	*	*	*	*	*	*
*tremolo	*	*	*	*	*	*	*	*	*	*	*
!	!	!LO:TX:t=P:problem:mixed beam	!	!	!	!	!	!	!	!	!
8G\L	.	8B/L	2ryy	8gg\L	1ryy	1ryy	1ryy	4G\	me	1ryy	1ryy
8G\	.	16dd\L	.	16bb\L	.	.	.	.	.	.	.
.	.	16cc#\JJ	.	16aa\JJ	.	.	.	.	.	.	.
8G\	.	16b/LL	.	16gg\LL	.	.	.	4r	.	.	.
.	.	16a/	.	16ff#\	.	.	.	.	.	.	.
8G\J	.	16g/	.	16ee\	.	.	.	.	.	.	.
.	.	16f#/JJ	.	16dd\JJ	.	.	.	.	.	.	.
*Xtremolo	*	*	*	*	*	*	*	*	*	*	*
!LO:N:vis=4	!	!LO:N:vis=4	!LO:N:vis=4	!LO:N:vis=4	!	!	!	!	!	!	!
2G\	.	2a/	2e\	2cc#X\	.	.	.	4r	.	.	.
.	.	.	.	.	.	.	.	8r	.	.	.
.	.	.	.	.	.	.	.	8e\	Pa-	.	.
*	*	*v	*v	*	*	*	*	*	*	*	*
=29	=29	=29	=29	=29	=29	=29	=29	=29	=29	=29
8r	.	8r	8r	1ryy	1ryy	1ryy	8c#X\	-sto-	1ryy	1ryy
16r	.	16r	16r	.	.	.	8c#\	-res	.	.
16G\	.	16ee 16a/	16ccc#X\	.	.	.	.	.	.	.
4G\	.	4ee 4a/	4ccc#\	.	.	.	8r	.	.	.
.	.	.	.	.	.	.	8A\	accur-	.	.
8r	.	8r	8r	.	.	.	8d\	-ri-	.	.
16r	.	16r	16r	.	.	.	8d\	-te	.	.
!	!	!	!LO:SIC:v:s=16ddd\	!	!	!	!	!	!	!
16F#\	.	16ff# 16a\	16bb\	.	.	.	.	.	.	.
4F#\	.	4ff# 4a\	4ddd\	.	.	.	16r	.	.	.
.	.	.	.	.	.	.	16d\	et	.	.
.	.	.	.	.	.	.	16e\	ne-	.	.
.	.	.	.	.	.	.	16f#\	-o	.	.
=30	=30	=30	=30	=30	=30	=30	=30	=30	=30	=30
2ryy	.	2r	2ryy	1ryy	1ryy	1ryy	8d\	na-	1ryy	1ryy
.	.	.	.	.	.	.	8d\	-to	.	.
.	.	.	.	.	.	.	8r	.	.	.
.	.	.	.	.	.	.	8c#X\	plau-	.	.
4ryy	.	8r	8r	.	.	.	8B\	-di-	.	.
!	!	!	!LO:N:vis=4	!	!	!	!	!	!	!
.	.	8b 8e/	8gg#X 8b 8d/	.	.	.	8A\	-te	.	.
!	!	!	!	!	!	!	!LO:TX:b:i:t=Sup\nAria	!	!	!
!	!	!LO:TX:t=P:problem:partia kończy się w t. 30	!LO:TX:t=P:problem:partia kończy się w t. 30	!	!	!	!LO:TX:t=P:problem:partia kończy się w t. 30	!	!	!
8ryy	.	4cc# 4e/	4aa\	.	.	.	4r	.	.	.
8E\	.	.	.	.	.	.	.	.	.	.
=31	=31	=31	=31	=31	=31	=31	=31	=31	=31	=31
2AA/	.	1ryy	1ryy	1ryy	1ryy	1ryy	1ryy	.	1ryy	1ryy
!LO:TX:b:i:t=Sub\nAria	!	!	!	!	!	!	!	!	!	!
2r	.	.	.	.	.	.	.	.	.	.
==	==	==	==	==	==	==	==	==	==	==
*-	*-	*-	*-	*-	*-	*-	*-	*-	*-	*-
!!!system-decoration: [(g1)]<s3>[(g2)][(g3)]
!!!AIN: 2 bass 1 cbass 2 cor 2 soprn 2 violn
!!!ENC: Andrzej Kubiczek
!!!END: 2020-10-22
!!!ENC: Andrzej Kubiczek
!!!END: 2022-01-27
